X: 172
T:The Destitution
M:4/4
L:1/8
C:John Stevenson
S:Ciaran Kelly, Moneymore, Derry (Accordian)
R:Reel
D:Session tape - Derrygonelly, Fermanagh 1993
Z:Bernie Stocks
K:Em
E2BE cEBE | dcBc AcBG |1 E2BE cEBE | AGFG AcBG :|2 EBFB GBFB | AGFA BEE2
 ::\
Bede bede | Bede fga2 |1Bede bede | (3Bcd BA BEE2 :|2 bgaf gfed | eBBA B
EE2
:|

